X:1
T:Nobis Sancti Spiritus
T:Nobis Sancti Spiritus
T:Alexander Agricola (1445-1506)
T:© 2009 by Paul R Marchesano. May be freely copied for nonprofit use.
T:© 2009 by Paul R Marchesano. May be freely copied for nonprofit use.
T:© 2009 by Paul R Marchesano. May be freely copied for nonprofit use.
T:© 2009 by Paul R Marchesano. May be freely copied for nonprofit use.
T:© 2009 by Paul R Marchesano. May be freely copied for nonprofit use.
T:© 2009 by Paul R Marchesano. May be freely copied for nonprofit use.
C:Alexander Agricola
C:(1445-1506)
Z:© 2009 by Paul R Marchesano. May be freely copied for nonprofit use.
%%score 1 2 3 4
L:1/8
Q:1/4=98
M:4/4
K:E
V:1 treble nm="Soprano" snm="S."
V:2 treble nm="Alto" snm="A."
V:3 treble-8 nm="Tenor" snm="T."
V:4 bass nm="Bass" snm="B."
V:1
 B3 B e2 c2 | d3 B B2 z2 | z2 B3 G G2 | A3 F F2 G2 | A>Bc/=d/ c>B B2 ^A | B2 c4 B2 | %6
w: No- bis San- cti|Spi- ri- tus|Spi- ri- tus|gra- ti- a _|sit _ _ _ _ _ _ _|_ da- ta|
 z F A2 GG B>B | FAG B2 A/G/ Ac- | c/B/A/G/ Ac/B/ A/G/A c>B | B2 ^AB/B/ BBG=A | B2 z2 z4 | %11
w: de qua vir- go vir- gi-|num _ fu- * * * it ob-|* * * * um- * * * * um- bra- *|* * * per san- ctum an- ge-|lum|
 z4 cd e2 | d2 G>A GFGA | B2 z2 z2 z G | BcBA G2 G>A | B/G/ c2 ^B c2 G2 | A2 G2 F B2 ^A | %17
w: sa- lu- ta-|ta, ver- bum ca- ro fa- ctum|est, vir-|go fe- cun- da- ta fe- *|cun- * da- * ta ve-|ni San- cte Spi- *|
 B2 A2 G c2 B | c2 A3 G FB | A c2 ^B/^A/ B2 c2 | z G AF A2 G2 | z2 z G A>G FE | F2 B3 A/G/ c2 | %23
w: ||* ri- * * * tus,|re- ple tu- o- rum|cor- da fi- de- li-|um: et _ _ _|
 BAG B2 ^A B>c | d/e<dG/ c2 ^B ce- | ed c/B/A/G/ FF A2 | G2 B2 A c2 B/A/ | G>A Bc>B B2 ^A | %28
w: tu- * * i a- mo- *|* * * * * * ris in|_ _ _ _ _ _ _ e- is|ig- nem ac- cen- * *||
 B2 z D E2 D2 | z F G2 F2 D2 | E4 D4 |] %31
w: de, ac- cen- de,|ac- cen- de, ac-|cen- de.|
V:2
 z2 E3 E A2 | F2 G3 E E2 | F2 D2 z2 EG | F3 C D2 E2- | E2 F2 F2 GF | D F2 E/D/ EF G2 | z4 z B, D2 | %7
w: No- bis San-|cti Spi- ri- tus|_ _ gra- *|* ti- a _|_ sit da- * *|* * * * * * ta|de qua|
 CC E>D B,2 C2 | F2 C2 G2 F2 | D2 G2 z4 | B,>B, B,B, G,A, B,2 | G, C2 =D C B,2 ^A, | B,2 E>F EDEC | %13
w: vir- go vir- gi- num _|fu- it ob- um-|bra- ta|cum per san- ctum an- ge- lum|fu- it sa- lu- ta- *|ta, ver- bum ca- ro fa- ctum|
 B,2 z2 z2 z E | GAGF E2 z G- | GF G2 E>DE/F/G- | G/F/ F2 ^E F2 F2 | z4 z2 E2- | E2 F2 E2 DG- | %19
w: est, vir-|go fe- cun- da- ta fe-|* * * cun- * * * *|* * * * da- ta|ve-|* ni San- cte Spi-|
 GF G4 E2 | z EFD F2 E2 | z2 z E C>A, B,G, | F,2 E,E DF E2 | B,2 B,2 F2 DG- | GF/E/ D2 G2 E2- | %25
w: * * ri- tus,|re- ple tu- o- rum|cor- da fi- de- li-|um: et _ _ _ _|tu- i a- * mo-|* * * * * ris|
 E2 z G, B,2 A,2 | C2 G,2 F, A,2 B, | C2 z G2 E F2 | D2 z F G2 F2 | z D E2 D2 z F, | %30
w: _ in e- is|ig- nem ac- cen- *|de, ac- cen- *|de, ac- cen- de,|ac- cen- de, ig-|
 G,E, G,2 F,4 |] %31
w: nem ac- cen- de.|
V:3
 z8 | B3 B e2 c2 | d3 B B2 c2- | cA A2 B4 | c2 A2 =d2 c2 | B2 z2 z2 z B | d2 cc e>e B2 | %7
w: |No- bis San- cti|Spi- ri- tus gra-|* ti- a _|sit _ da- *|ta de|qua vir- go vir- gi- num|
 A2 Be de f2 | c2 ff de c2 | B2 z e>ee ec | d e2 G>GE FG- | GEAA G F2 E | F2 z2 z4 | g>f ef ed e2 | %14
w: fu- it ob- um- bra- ta|fu- it ob- um- * bra-|ta cum per san- ctum an-|ge- lum san- ctum an- ge- lum|_ fu- it sa- lu- ta- *|ta,|ver- bum ca- ro fa- ctum est,|
 z4 c2 e2 | dc d2 c2 z2 | c4 d2 c2 | B e2 d e2 z2 | c4 c2 dB | c2 dc d2 c2- | c2 z2 z2 z B | %21
w: vir- go|fe- cun- da- ta|ve- ni San-|cte Spi- ri- tus,|ve- ni San- *|cte Spi- * ri- tus,|_ cor-|
 c>A BG F2 z2 | z2 G2 B2 c2 | d2 e2 c2 Bd- | d g2 f/e/ d2 c2- | c2 z2 z2 z c | e2 d2 f2 c2 | %27
w: da fi- de- li- um:|et tu- i|a- mo- * * *|* * * * * ris|_ in|e- is ig- *|
 e2 de>dB c2 | B8- | B8- | B8 |] %31
w: nem ac- cen- * * *|de.|_||
V:4
 z8 | z2 z E,2 E, A,2 | F,2 G,3 E, E,C, | F,2 F,2 B,,2 E,2 | A,, A,2 F,2 ^D, E,F, | %5
w: |No- bis San-|cti Spi- ri- tus _|gra- ti- a _|sit da- * * * *|
 B,,2 z G, A,2 G,G, | B,>B, F,2 E,2 z2 | F,F, E,>F, G,2 F,2 | F,2 F,2 G,E, F,2 | G,2 E,2 z4 | %10
w: ta de qua vir- go|vir- gi- num _|fu- it ob- * um- bra-|ta fu- it ob- um-|bra- ta|
 z E,>E,E, E,C,D,E,- | E,C,F,F, E,D, C,2 | B,,2 z2 z4 | E,>F, G,A, G,F, E,2 | z4 z2 C,2 | %15
w: cum per san- ctum an- ge- lum|_ _ fu- it sa- lu- ta-|ta,|ver- bum ca- ro fa- ctum est,|fe-|
 G,A, G,2 C,4 | z4 F,4 | G,2 F,2 E, A,2 G, | A,2 F,2 A,2 B,G, | A,2 G,4 C,2- | C,2 z2 z2 z E, | %21
w: cun- * da- ta|ve-|ni San- cte Spi- *||* ri- tus,|_ cor-|
 A,>F, G,E, F,2 z2 | z4 z2 C,2 | G,2 E,2 F,2 G,2- | G,6 C,2 | z C, E,2 D,2 F,2 | C,2 z2 z4 | %27
w: da fi- de- li- um:|et|tu- i a- mo-|* ris|in e- is ig-|nem|
 C,/D,/E,/F,/ G,E, G,2 F,2 | B,,2 z B,, E,2 B,,2 | z B,, E,2 B,,2 B,,2 | E,E, E,2 B,,4 |] %31
w: ac- * * * * * cen- *|de, ac- cen- de,|ac- cen- de, ig-|nem ac- cen- de.|

